X:1
T:Pardoning Grace
T:C minor                    Alexander Gillet, 1795
T:Transcribed from The New York Collection of Sacred Harmony, 1795.
T:Isaac Watts, 1719 (Psalm 130, Part 2)         88. 88. (L. M.) 
%%score [ 1 2 3 4 ]
L:1/8
Q:1/4=100
M:4/4
K:Eb
V:1 treble nm="Tr.\n1" snm="Tr.\n1"
V:2 treble nm="Tr.\n2" snm="Tr.\n2"
V:3 treble-8 nm="T." snm="T."
V:4 bass nm="B." snm="B."
V:1
"_1. From deep        distress  and    troubled  thoughts    To  thee,         my God, I  raised             my    cries;    If thou se–vere–ly  mark  our  faults,  No flesh can stand be–\n2. But    thou        hast built thy   throne   of    grace     Free to           dispense  thy  par     –     dons   there,  That  sinners may approach thy face, And hope and love, as" c8 | %1
 (C2 D2 E2) F2 | G4 B4 | (F2 G2 A2) A2 | G8 | z4 G4 | (G3 A B2) G2 | c4 d4 | (e3 d c2) c2 | d8 | %10
 z4 c4 | B2 c2 G4 | g4 ed c2 | d6 =B2 | c2 d2 e4- | e4 c4 | %16
"_1. –fore       thine  eyes.    No  flesh         can      stand   be   –  fore  thine eyes.\n2.  well         as      fear.    And  hope        and      love,    as      well      as   fear." (d2 c2 B2) =A2 | %17
 G8 | z4 G4 | (c2 B2 c2) e2 | d4 (3(g2 f2 e2) | d6 d2 | c8 |] %23
V:2
"_3. As   the              be–nigh–ted   pil – grims   wait,     And  long,      and wish for brea      –       king  day,   So waits my soul be  – fore thy  gate;  When will my God his" G8 | %1
 (E3 F G2) A2 | G4 G4 | c4 c4 | =B8 | z4 c4 | (E3 F G2) E2 | A4 F4 | (c2 B2 A2) G2 | G8 | z4 c4 | %11
 B2 c2 G4 | E4 =B2 =A2 | G6 G2 | c2 =B2 c4- | c4 c4 | %16
"_3.  face          dis – play?  When will         my     God    his          face dis–play?" (d2 c2 B2) =A2 | %17
 =B8 | z4 G4 | (G2 F2 E2) C2 | G4 (E2 A2) | G6 G2 | G8 |] %23
V:3
"_4. My  trust            is  fixed  up – on     thy     word,   Nor  shall      I       trust thy word        in           vain;   Let mourning souls address the Lord,  And find re – lief from\n5. Great is              his love,  and  large  his     grace,  Through the  re – demp–tion of          his          Son;   He  turns our feet from sin – ful ways,  And pardons what our" G8 | %1
 (c3 =B c2) d2 | e4 (d2 c2) | f4 e4 | d8 | z4 e4 | B4 G4 | c4 d4 | (3(e2 f2 g2) (3(g2 f2 e2) | d8 | %10
 z4 c4 | B2 c2 G4 | (G2 c2) =B2 =A2 | =B6 d2 | e2 f2 g4- | g4 e4 | %16
"_4.  all          their  pain.   And  find           re   –   lief     from      all  their  pain.\n5. hands     have  done.   And  par    –    dons    what    our    hands have done." (f2 e2 d2) c2 | %17
 d8 | z4 g4 | (e2 d2 c2) cd | G4 (G2 c2) | =B6 B2 | c8 |] %23
V:4
 [C,C]8 | (G,3 A, G,2) F,2 | E,4 B,,4 | (F,2 E,2 D,2) C,2 | [G,,G,]8- | [G,,G,]4 C,4 | E,6 E,2 | %7
 F,4 B,,4 | (C,2 D,2 E,2) C,2 | [G,,G,]8 | z4 [C,C]4 | [B,,B,]2 [C,C]2 [G,,G,]4 | %12
 [E,E]4 [D,D]2 [C,C]2 | [G,,G,]6 [G,,G,]2 | [A,,A,]2 [F,,F,]2 E,4- | E,4 E,4 | (B,,2 C,2 D,2) D,2 | %17
 [G,,G,]8- | [G,,G,]4 E,4 | %19
"^_________________________________________\nEdited by B. C. Johnston, 2018. \n   1. Measure 1, \nBass\n: bottom note changed from A to C.     \n   2. Measure 13: Treble 2: last two notes changed from B–A to Bnat–Anat, like Tenor." (C,3 D, E,2) F,2 | %20
 (G,2 F,2 E,2) C,2 | [G,,G,]6 G,,2 | C,8 |] %23

